X: 1
T:Three Handed Reel
C:Trad.
A:Bromsberrow Heath, Gloucestershire
S:Bacon (EDS, Sept. 1959 (RW))
B:Bacon, p. 113
%P:A.(A$^2$.B)$^\infty$
P:A.(A2.B)8
N:Originally entered by Rich Holmes, 1996 Sept.
M:4/4
L:1/8
K:G
L:1/8
I:speed 200
P:A
zz/2F/2|G2 G>E D2  G>B|A>GF>E  D2>>A2|B2 B2   A2 B2|A>GF>E D2 \
E>F|G>FG>E D2  G>B|A>GF>E  D2  B2|B>dB>G  A>cA>F|G2 G2  G2||\
P:B
z2|d2- d>BG>B d2|e2- e>c A2 A>B|d2- d>B G2 G>B|A>GF>E D2 \
E>F|G>FG>E D2  G>B|A>GF>E  D2  B2|B>dB>G  A>cA>F|G2 G2  G2||
